**kern	**kern	**dynam
*part1	*part1	*part1
*staff2	*staff1	*
*I"Piano	*	*
*clefF4	*clefG2	*
*k[b-e-a-d-]	*k[b-e-a-d-]	*
=1	=1	=1
4CC	4G< 4B-< 4en<	.
8CC	8G< 8B-< 8e<	.
4CC	4G< 4B-< 4e<	.
8CC	8G< 8B-< 8e<	.
=	=	=
4FF 4F	4A- 4c 4f	.
8FF 8F	8A- 8c 8f	.
4FF 4F	4A- 4c	.
8FF 8F	8A- 8c	.
=	=	=
4.CC	4.B- 4.en 4.f	.
4.CC	4.c 4.en 4.g	.
=	=	=
2FF; 2F	2A-; 2c 2f	.
8r;	8r;	.
8r	8r	.
=||	=||	=||
*M3/8	*M3/8	*
4.FF	8e-L	p
.	8c	.
.	8FJ<	.
=	=	=
4.FF	8e-L	.
.	8c	.
.	8FJ<	.
=	=	=
4.BBB- 4.BB-	8dnL	.
.	8B-	.
.	8FJ<	.
=	=	=
*-	*-	*-
!!!system-decoration: {(s1,s2)}
!!!RDF**kern: < = below
